src/img/d20.svg

<?xml version="1.0" encoding="UTF-8"?>
<svg width="59px" height="53px" viewBox="0 0 59 53" version="1.1" xmlns="http://www.w3.org/2000/svg" xmlns:xlink="http://www.w3.org/1999/xlink" xmlns:cc="http://creativecommons.org/ns#">
		<!-- Generator: Sketch 53.2 (72643) - https://sketchapp.com -->
		<title>d20</title>
		<desc>Created with Sketch.</desc>
		<g id="Page-1" stroke="none" stroke-width="1" fill="none" fill-rule="evenodd">
				<g id="rpg_dice" transform="translate(-161.000000, 0.000000)" fill="#000000" fill-rule="nonzero">
						<path d="M184.53729,49.654791 L172.21788,46.5 L166.76707,33.500002 L161.31626,20.500002 L166.58648,15.697702 C169.48509,13.056442 174.60381,8.446382 177.96141,5.4531325 L184.06613,0.0108525 L195.39783,1.5054225 C201.63027,2.3274425 207.05904,3.0000025 207.46178,3.0000025 C207.86452,3.0000025 210.69118,9.369512 213.74324,17.154462 L219.29245,31.308932 L209.21314,42.154467 C203.66951,48.11951 198.62146,52.957156 197.99525,52.904791 C197.36904,52.852421 191.31296,51.389926 184.53729,49.654791 L184.53729,49.654791 Z M199.55472,50.531367 C199.83743,50.814075 203.87811,46.872671 208.53402,41.772691 C216.97141,32.530552 219.74774,29.022252 217.54869,30.381332 C216.93433,30.761032 214.1648,29.922982 211.39418,28.519002 C208.62356,27.115022 206.32253,26.086392 206.28078,26.233152 C206.23898,26.379922 204.70262,31.900002 202.86654,38.5 C201.03046,45.1 199.49985,49.825 199.46519,49 C199.43059,48.175 200.75039,42.55 202.39819,36.5 L205.39419,25.500002 L202.57092,23.000002 C201.01813,21.625002 195.51593,17.462502 190.34382,13.750002 C185.17171,10.037502 181.26908,7.0000025 181.67131,7.0000025 C182.07353,7.0000025 187.38127,10.636022 193.46629,15.080042 C199.5513,19.524062 204.76547,22.924552 205.05333,22.636692 C205.8085,21.881522 207.5787,4.8886825 206.96602,4.2759925 C205.93514,3.2451125 181.98657,5.9417125 180.82077,7.2199425 C180.17866,7.9239725 179.11853,13.000002 178.46493,18.500002 C177.81133,24.000002 177.03845,29.716492 176.74742,31.203322 L176.21828,33.906652 L189.5166,29.446362 C196.83068,26.993202 203.19008,25.111132 203.64861,25.263972 C204.10714,25.416822 198.37904,27.538782 190.9195,29.979452 C183.45995,32.420122 177.35669,34.724462 177.35669,35.100212 C177.35669,35.475962 181.84838,39.140443 187.33822,43.243502 C192.82806,47.346561 196.99056,51.092961 196.58822,51.568837 C196.18588,52.044712 196.57312,51.890304 197.4487,51.225708 C198.3243,50.561112 199.27202,50.248659 199.55472,50.531367 L199.55472,50.531367 Z M189.49169,39.295001 C188.22269,36.65775 187.76319,35.062502 188.47056,35.750002 C189.17793,36.4375 190.56669,37 191.55669,37 C193.42512,37 193.79177,39.041757 192.50753,42.295001 C191.93969,43.733465 191.34066,43.137581 189.49169,39.295001 Z M191.96086,38.270833 C190.94434,37.254318 190.10561,38.784725 190.93964,40.134215 C191.56967,41.153632 191.80522,41.154421 192.14394,40.138215 C192.37554,39.44343 192.29315,38.603094 191.96086,38.270802 L191.96086,38.270833 Z M196.4678,37.888889 C195.85173,36.121622 195.52267,34.500682 195.73656,34.286792 C195.95045,34.072902 196.62951,35.343852 197.24558,37.111111 C197.86165,38.878373 198.19071,40.499315 197.97682,40.713204 C197.76293,40.927093 197.08387,39.656151 196.4678,37.888889 L196.4678,37.888889 Z M206.75848,37.253531 C208.2179,35.529612 208.97388,35.267332 210.00848,36.125972 C210.75,36.741378 211.35669,37.504789 211.35669,37.822445 C211.35669,38.1401 210.82283,37.866145 210.17034,37.213654 C209.25522,36.298522 208.51221,36.424264 206.92034,37.763654 C204.86195,39.495572 204.86154,39.494271 206.75848,37.253531 Z M183.35669,29.065102 C183.35669,28.550902 183.80991,26.938142 184.36384,25.481182 C185.59339,22.247222 184.74387,20.433782 182.76766,22.073882 C181.91482,22.781682 181.35669,22.843212 181.35669,22.229432 C181.35669,20.795372 183.79227,20.033142 185.33263,20.985132 C186.34865,21.613062 186.38293,22.485962 185.49195,25.041832 C184.02298,29.255742 184.02139,29.249812 186.29095,28.035182 C189.24494,26.454252 190.20379,26.872452 187.35669,28.500002 C184.399,30.190772 183.35669,30.338022 183.35669,29.065102 L183.35669,29.065102 Z M188.8415,22.970632 C186.2375,17.935032 189.84869,15.768872 192.95193,20.505002 C194.27462,22.523682 194.35239,23.300252 193.35254,24.505002 C191.54232,26.686182 190.59654,26.364492 188.8415,22.970632 Z M192.84392,24.020662 C193.71771,22.606842 191.54641,19.000002 189.82151,19.000002 C188.05542,19.000002 188.03735,19.205012 189.51721,22.452942 C190.73885,25.134162 191.83615,25.651262 192.84392,24.020662 L192.84392,24.020662 Z M196.3292,13.250002 L193.85669,11.500002 L197.77852,11.000002 C201.94357,10.468992 203.6796,8.482202 200.66203,7.6999825 C199.09476,7.2937125 199.07968,7.2167025 200.54767,7.1160025 C201.47771,7.0522025 202.52895,7.4697125 202.88376,8.043802 C203.90063,9.689142 201.36521,12.000002 198.54312,12.000002 C196.06982,12.000002 196.04652,12.054502 197.91556,13.468192 C200.66321,15.546412 199.31092,15.360412 196.3292,13.250002 Z M195.35669,50.621845 C195.35669,49.961435 176.44477,36.000002 175.55019,36.000002 C175.07909,36.000002 174.22667,38.04066 173.65593,40.534801 C172.49995,45.586463 172.93198,46.135447 179.10669,47.461143 C181.19711,47.909951 182.35669,47.773767 182.35669,47.079455 C182.35669,46.485755 181.56919,45.964474 180.60669,45.921053 C179.60481,45.875853 179.38005,45.630151 180.08093,45.346306 C180.75426,45.073616 182.31689,45.559143 183.55344,46.425253 C185.10441,47.511594 185.34501,48.029773 184.3292,48.095997 C183.51932,48.148797 185.10669,48.770338 187.85669,49.477202 C193.357,50.891013 195.35669,51.196203 195.35669,50.621845 Z M177.41031,19.241472 C178.34709,12.233662 178.96684,6.3360925 178.78755,6.1357625 C178.60825,5.9354325 174.86005,9.065942 170.4582,13.092442 C164.96668,18.115702 162.75057,20.769672 163.39709,21.548682 C163.91533,22.173122 164.00574,23.052262 163.59801,23.502332 C163.19029,23.952412 163.34351,24.043712 163.93852,23.705242 C164.53353,23.366762 167.2064,25.309252 169.87823,28.021872 C172.55007,30.734492 174.95458,32.735442 175.2216,32.468422 C175.48861,32.201412 176.47353,26.249282 177.41031,19.241472 L177.41031,19.241472 Z M169.60669,22.917062 C166.60807,21.780762 166.75704,19.594252 169.93163,18.147812 C172.91825,16.787012 174.35669,17.368482 174.35669,19.936572 C174.35669,22.592552 172.24575,23.917102 169.60669,22.917062 Z M173.2864,19.690982 C173.2186,17.578612 173.18528,17.571762 172.35669,19.500002 C171.17391,22.252482 171.17391,23.231002 172.35669,22.500002 C172.90669,22.160082 173.32506,20.896022 173.2864,19.690982 Z M170.35669,20.440982 C170.35669,19.583522 169.90669,19.160082 169.35669,19.500002 C168.80669,19.839922 168.35669,20.541472 168.35669,21.059012 C168.35669,21.576562 168.80669,22.000002 169.35669,22.000002 C169.90669,22.000002 170.35669,21.298442 170.35669,20.440982 Z" id="d20"></path>
				</g>
		</g>
</svg>

<!-- Created with Inkscape (http://www.inkscape.org/) -->
<!-- License: Creative Commons -->
<svg width="59" height="53" xmlns="http://www.w3.org/2000/svg"><defs><style>*{fill:#fff}</style></defs><g id="Page-1" stroke="none" stroke-width="1" fill="none" fill-rule="evenodd"><g id="rpg_dice" transform="translate(-161)" fill="#000" fill-rule="nonzero"><path d="M184.537 49.655l-12.32-3.155-5.45-13-5.45-13 5.27-4.802c2.898-2.642 8.017-7.252 11.374-10.245l6.105-5.442 11.332 1.494C201.63 2.327 207.059 3 207.462 3c.403 0 3.23 6.37 6.281 14.154l5.55 14.155-10.08 10.845c-5.543 5.966-10.592 10.803-11.218 10.75-.626-.052-6.682-1.514-13.458-3.25zm15.018.876c.282.283 4.323-3.658 8.979-8.758 8.437-9.242 11.214-12.75 9.015-11.392-.615.38-3.384-.458-6.155-1.862-2.77-1.404-5.071-2.433-5.113-2.286-.042.147-1.578 5.667-3.414 12.267-1.837 6.6-3.367 11.325-3.402 10.5-.034-.825 1.285-6.45 2.933-12.5l2.996-11-2.823-2.5c-1.553-1.375-7.055-5.537-12.227-9.25-5.172-3.712-9.075-6.75-8.673-6.75.403 0 5.71 3.636 11.795 8.08s11.3 7.845 11.587 7.557c.756-.755 2.526-17.748 1.913-18.361-1.03-1.03-24.98 1.666-26.145 2.944-.642.704-1.702 5.78-2.356 11.28-.654 5.5-1.427 11.216-1.718 12.703l-.529 2.704 13.299-4.46c7.314-2.454 13.673-4.336 14.132-4.183.458.153-5.27 2.275-12.73 4.715-7.46 2.441-13.562 4.745-13.562 5.121 0 .376 4.491 4.04 9.981 8.144 5.49 4.103 9.653 7.849 9.25 8.325-.402.476-.015.321.86-.343.876-.665 1.824-.977 2.107-.695zm-10.063-11.236c-1.27-2.637-1.729-4.232-1.021-3.545.707.688 2.096 1.25 3.086 1.25 1.868 0 2.235 2.042.95 5.295-.567 1.438-1.166.843-3.015-3zm2.469-1.024c-1.017-1.017-1.855.514-1.021 1.863.63 1.02.865 1.02 1.204.004.232-.695.15-1.535-.183-1.867zm4.507-.382c-.616-1.767-.945-3.388-.731-3.602.213-.214.893 1.057 1.509 2.824.616 1.767.945 3.388.73 3.602-.213.214-.892-1.057-1.508-2.824zm10.29-.635c1.46-1.724 2.216-1.987 3.25-1.128.742.615 1.349 1.379 1.349 1.696 0 .318-.534.044-1.187-.608-.915-.915-1.658-.79-3.25.55-2.058 1.732-2.058 1.73-.162-.51zm-23.401-8.189c0-.514.453-2.127 1.007-3.584 1.23-3.234.38-5.047-1.596-3.407-.853.708-1.411.77-1.411.155 0-1.434 2.435-2.196 3.976-1.244 1.016.628 1.05 1.501.159 4.057-1.469 4.214-1.47 4.208.799 2.993 2.954-1.58 3.913-1.163 1.066.465-2.958 1.69-4 1.838-4 .565zm5.484-6.094c-2.603-5.036 1.008-7.202 4.11-2.466 1.324 2.019 1.401 2.795.402 4-1.81 2.181-2.756 1.86-4.512-1.534zm4.003 1.05c.874-1.414-1.298-5.021-3.022-5.021-1.767 0-1.785.205-.305 3.453 1.222 2.681 2.32 3.198 3.327 1.568zm3.485-10.771l-2.472-1.75 3.922-.5c4.165-.531 5.9-2.518 2.883-3.3-1.567-.406-1.582-.483-.114-.584.93-.064 1.981.354 2.336.928C203.9 9.689 201.365 12 198.544 12c-2.474 0-2.497.055-.628 1.468 2.747 2.078 1.395 1.892-1.587-.218zm-.972 37.372c0-.66-18.912-14.622-19.807-14.622-.47 0-1.323 2.04-1.894 4.535-1.156 5.051-.724 5.6 5.45 6.926 2.091.449 3.25.313 3.25-.382 0-.593-.787-1.115-1.75-1.158-1.001-.045-1.226-.29-.525-.575.673-.272 2.236.213 3.472 1.08 1.551 1.086 1.792 1.604.776 1.67-.81.053.778.674 3.528 1.381 5.5 1.414 7.5 1.72 7.5 1.145zm-17.947-31.38c.937-7.008 1.557-12.906 1.378-13.106-.18-.2-3.928 2.93-8.33 6.956-5.491 5.024-7.707 7.678-7.06 8.457.517.624.608 1.503.2 1.953-.408.45-.254.542.34.203.596-.338 3.268 1.604 5.94 4.317 2.672 2.712 5.077 4.713 5.344 4.446.267-.267 1.252-6.219 2.188-13.227zm-7.803 3.675c-2.999-1.136-2.85-3.323.325-4.77 2.986-1.36 4.425-.779 4.425 1.79 0 2.656-2.111 3.98-4.75 2.98zm3.68-3.226c-.068-2.112-.102-2.12-.93-.191-1.183 2.752-1.183 3.731 0 3 .55-.34.968-1.604.93-2.809zm-2.93.75c0-.857-.45-1.28-1-.941-.55.34-1 1.041-1 1.559s.45.941 1 .941 1-.702 1-1.559z" id="d20"/></g></g></svg>
